arb/images/main/frame.svg

<svg width="448" height="333" fill="none" xmlns="http://www.w3.org/2000/svg"><path d="M439.319 317.583a6.305 6.305 0 006.298-6.303 6.304 6.304 0 00-6.298-6.302h-18.967v18.98a6.305 6.305 0 006.298 6.303 6.305 6.305 0 006.298-6.303" stroke="#E63946" stroke-width="3" stroke-miterlimit="10" stroke-linecap="round" stroke-linejoin="round"/><path d="M439.826 305.05c1.593 0 3.185.58 4.416 1.812 1.231 1.231 1.81 2.825 1.81 4.419 0 1.593-.579 3.187-1.81 4.419-1.231 1.231-2.823 1.811-4.416 1.811-1.593 0-3.185-.58-4.416-1.811-1.231-1.232-1.81-4.275-1.81-5.868m-13.176 14.633c0 1.594.58 3.188 1.81 4.419 1.231 1.232 2.824 1.812 4.416 1.812 1.593 0 3.186-.58 4.416-1.812 1.231-1.231 1.81-2.825 1.81-4.419 0-1.593-.579-3.187-1.81-4.419-1.23-1.231-2.823-1.811-4.416-1.811H2.112v-23.419m431.416 4.729V2.219h-22.66" stroke="#E63946" stroke-width="3" stroke-miterlimit="10" stroke-linecap="round" stroke-linejoin="round"/></svg>

<svg width="448" height="333" viewBox="0 0 448 333" fill="none" xmlns="http://www.w3.org/2000/svg">
<path d="M439.319 317.583C442.794 317.583 445.617 314.758 445.617 311.28C445.617 307.803 442.794 304.978 439.319 304.978H433.021H420.352V317.656V323.958C420.352 327.436 423.175 330.261 426.65 330.261C430.125 330.261 432.948 327.436 432.948 323.958" stroke="#E63946" stroke-width="3" stroke-miterlimit="10" stroke-linecap="round" stroke-linejoin="round"/>
<path d="M439.826 305.05C441.419 305.05 443.011 305.63 444.242 306.862C445.473 308.093 446.052 309.687 446.052 311.281C446.052 312.874 445.473 314.468 444.242 315.7C443.011 316.931 441.419 317.511 439.826 317.511C438.233 317.511 436.641 316.931 435.41 315.7C434.179 314.468 433.6 311.425 433.6 309.832" stroke="#E63946" stroke-width="3" stroke-miterlimit="10" stroke-linecap="round" stroke-linejoin="round"/>
<path d="M420.424 324.465C420.424 326.059 421.004 327.653 422.234 328.884C423.465 330.116 425.058 330.696 426.65 330.696C428.243 330.696 429.836 330.116 431.066 328.884C432.297 327.653 432.876 326.059 432.876 324.465C432.876 322.872 432.297 321.278 431.066 320.046C429.836 318.815 428.243 318.235 426.65 318.235H2.11188V294.816" stroke="#E63946" stroke-width="3" stroke-miterlimit="10" stroke-linecap="round" stroke-linejoin="round"/>
<path d="M433.528 299.545V2.21851H410.868" stroke="#E63946" stroke-width="3" stroke-miterlimit="10" stroke-linecap="round" stroke-linejoin="round"/>
</svg>
